X: 20882
Q: "Allegretto"
M: 6/8
L: 1/8
K: C
(Gc).c (ce)c | (Bc)d g2e/c/ | AAA ABG | c3- c2 |: G |\
(Gc)c (ce)c | Bcd g2(e/c/) | AAA (AB)G | c"_F."c'c' c'2"_P."G |
c2g e2g | c2g e2"_F."c' | (c'a)a (ab).g | c'3- c'2 |]



